lib/functional/games/football.svg

<svg xmlns="http://www.w3.org/2000/svg" fill="none" stroke="currentColor" aria-hidden="true" viewBox="0 0 32 32"><g id="Icon-Football"><g clip-path="url(#clip0_11_2993)"><g id="size=md (32px)"><g id="Football"><path id="Vector" stroke-linecap="round" stroke-linejoin="round" stroke-width="2" d="M23.0749 23.075C17.8749 28.2625 10.6749 27.85 7.19988 27.2625C6.58424 27.1592 6.01615 26.8665 5.57474 26.4251C5.13334 25.9837 4.84063 25.4156 4.73738 24.8C4.14988 21.325 3.73738 14.125 8.92488 8.92497C14.1124 3.72497 21.3249 4.14997 24.7999 4.73747C25.4155 4.84072 25.9836 5.13344 26.425 5.57484C26.8664 6.01624 27.1591 6.58434 27.2624 7.19997C27.8499 10.675 28.2624 17.875 23.0749 23.075Z"/><path id="Vector_2" stroke-linecap="round" stroke-linejoin="round" stroke-width="2" d="M20 12L12 20"/><path id="Vector_3" stroke-linecap="round" stroke-linejoin="round" stroke-width="2" d="M15.5879 12.7625L19.2379 16.4125"/><path id="Vector_4" stroke-linecap="round" stroke-linejoin="round" stroke-width="2" d="M12.7627 15.5875L16.4127 19.2375"/><path id="Vector_5" stroke-linecap="round" stroke-linejoin="round" stroke-width="2" d="M18.5254 4.52502L27.4754 13.475"/><path id="Vector_6" stroke-linecap="round" stroke-linejoin="round" stroke-width="2" d="M4.52539 18.525L13.4754 27.475"/></g></g></g></g><defs><clipPath id="clip0_11_2993"><rect width="32" height="32" fill="white" rx="5"/></clipPath></defs></svg>

<svg xmlns="http://www.w3.org/2000/svg" fill="none" stroke="currentColor" aria-hidden="true" viewBox="0 0 32 32"><g stroke="#101828" stroke-linecap="round" stroke-linejoin="round" stroke-width="2" clip-path="url(#a)"><path d="M23.075 23.075c-5.2 5.188-12.4 4.775-15.875 4.188A3 3 0 0 1 4.737 24.8c-.587-3.475-1-10.675 4.188-15.875 5.187-5.2 12.4-4.775 15.875-4.188A3 3 0 0 1 27.262 7.2c.588 3.475 1 10.675-4.187 15.875ZM20 12l-8 8m3.588-7.238 3.65 3.65m-6.475-.824 3.65 3.65m2.112-14.713 8.95 8.95m-22.95 5.05 8.95 8.95"/></g><defs><clipPath id="a"><rect width="32" height="32" fill="#fff" rx="5"/></clipPath></defs></svg>
